X: 3
T: The Kerry
R: slide
M: 12/8
L: 1/8
K: Dmaj
| D2F A2A | BdB AFE | D2F AFA | B2c d2d || D2F A2A | BdB AFA | fed cBA | B2c d2e || fed cBA | BdB AFA | fed cBA | B2c d2e || fed cBA | BdB AFE | D2F A2A | B2c d3 |


Tune 882	Setting 14063

